X:1
T:James Gibb editions
T:Habe deine Lust an den Herren - Schütz
T:#
%%score [ 1 2 ] 3
L:1/8
Q:1/4=108
M:4/4
K:C
V:1 treble nm="Soprano I"
V:2 treble nm="Soprano II"
V:3 bass nm="Continuo"
V:1
"^Habe deine Lust an den Herren, SWV 311""^Heinrich Schütz\n(1585-1672)""^Psalm 37:4-5,1-3" AAAB c2 cd | %1
w: Ha- be dei- ne Lust an dem|
 B4 A4 | z GAB c2 cd | (de) (fe) d4 | c8 | z8 | z8 | z8 | z8 | z8 | z8 | z8 | z8 | z8 | z8 | %15
w: Her- ren,|der wird dir ge- ben, was|dein * Herz * wün-|schet,|||||||||||
 AAAB c2 cd | (^G2 A4 G2) | AEF=G A2 AA | (Bc) (dc) c3 (B- | c2) z E E3 ^F | GGGG G3 (^F | %21
w: ha- be dei- ne Lust an dem|Her\- * *|ren, der wird dir ge- ben, was|dein * Herz * wün- schet,|* be- fiehl dem|Her- ren die- ne We- ge|
 G2 D2 =F2 EE | D4 z2 E2 | ^F3 G AAAA | A3 (^G A4) | z4 z ede | ^cc z2 z d=cd | BB z2 z cBc | %28
w: * und hof- fe auf|ihn, be-|fiehl dem Her- ren dei- ne|We- ge, *|er wirds wohl|ma- chen, er wirds wohl|ma- chen, er wirds wohl|
 A>B c4 B2) | cGFG EE z2 | z cBc AA z2 | z AGA FF z2 | z dcd B4 | A8 | z ^F AA/G/ FAGF | %35
w: ma\- * * *|chen, er wirds wohl ma- chen,|er wirds wohl ma- chen,|er wirds wohl ma- chen,|er wirds wohl ma-|chen.|Er- zür- ne dich nicht ü- ber die|
 G2 ^F2 z4 | z8 | z c ee/d/ cedc | d2 ^c2 z2 ef | dd dd/e/ =cB c2 | B2 z B A^G A2 | ^G8 | z8 | z8 | %44
w: Bö- sen,||er- zür- ne dich nicht ü- ber die|Bö- sen, sei nicht|nei- disch ü- ber die Ü- bel- thä-|ter, die Ü- bel- thä-|ter,|||
 z8 | z8 | z8 | z4 z2 d2- | d2 dd d3 ^c | d2 AB =c2 B2 | (A3 G AGGF) | G8 | (E6 FG | A6 B2 | %54
w: |||und|* wie das grü- ne|Kraut wer- den sie wer-|wel\- * * * * *|ken.|Hof\- * *||
 c3 c c2 A2 | (B2 c4 B2) | c4 G4- | G2 AB c4- | c2 de f4- | f3) f e2 c2 | d8 | c4 c2 (c2- | %62
w: * fe auf den|Her\- * *|ren, hof\-|||* fe auf den|Her-|ren und thu\-|
 c2 BA) B4 | c8 | e2 c2 A2 A2 | z4 z2 z B | cB A2 z2 z d | ed c2 B4 | A8 | ^cccc d2 de | %70
w: * * * e|Guts,|bleib im Lan- de|und|näh- re dich, und|näh- re dich red-|lich.|Ha- be dei- ne Lust an dem|
 (^c3 d/e/ d4- | d2 ^cB c4) | d4 z4 | z8 | z4 z GBc | d2 dd c2 B2 | A4 A^FAB | c2 cc B2 A2- | %78
w: Her\- * * *||ren,||der wird dir|ge- ben, was dein Herz|wün- schet, der wird dir|ge- ben, was dein Herz|
 A2 (^G^F G4) | A8 | z8 | z AB^c dAd=c | B4 A4 | z2 c2 c2 cB | c2 z2 z GAc | BB z2 z GAc | %86
w: * wün\- * *|schet.||Be- fiehl dem Her- ren dei- ne|We- ge|und hof- fe auf|ihn, er wirds wohl|ma- chen, er wirds wohl|
 BB/B/ ce d4 | c2 z2 z E^FA | ^GG z2 z E^FA | A3 (^G A4) | z8 | (dc) (BA) G2 G2 | z2 z c dc B2 | %93
w: ma- chen, er wirds wohl ma-|chen, er wirds wohl|ma- chen, er wirds wohl|ma- chen. *||Al\- * le\- * lu- ja,|Al- le- lu- ja,|
 G2 A4 ^G2 | A2 z e cdec | dc B2 z2 z B | cBAG ^FFGd | edcB B3 A | A4 z4 | z4 z2 gf | edcB d2 d2 | %101
w: Al- le- lu-|ja, Al- le- lu- ja, Al-|le- lu- ja, Al-|le- lu- ja, Al- le- lu- ja, Al-|le- lu- ja, Al- le- lu-|ja,|Al- le-|lu- ja, Al- le- lu- ja,|
 G2 A4 ^G2 | A4 c3 B | B2 B2 z4 | e3 d d3 c | c3 B B4 | A4 z4 | B2 d2 G4 | c4 z4 | e2 g2 B4 || %110
w: Al- le- lu-|ja, Al- le-|lu- ja,|Al- le- lu- ja,|Al- le- lu-|ja,|Al- le- lu-|ja,|Al- le- lu-|
[M:3/2][Q:1/4=162] A6 e2 d2 c2 | (d2 c2 B2 A2 G2 F2 | E8) A2 G2 | %113
w: ja, Al- le- lu-|ja, * * * * *|* Al- le-|
[M:3/2][Q:1/4=162][Q:1/4=162][Q:1/4=162] ^F4 F4 B2 A2 | G4 G4 (d2 c2) | (c2 B2) B8 | A6 c2 B2 A2 | %117
w: lu- ja, Al- le-|lu- ja, Al\- *|le\- * lu-|ja, Al- le- lu-|
 (B2 A2 G2 F2 E2 D2 | C6 e2 d2 c2 | (d2 c2 B2 A2 G2 F2 | E8) z4 | z12 | e2 d2) (e2 d2) (c2 d2) | %123
w: ja, * * * * *|* Al- le- lu-|ja, * * * * *|||Al\- * le\- * lu\- *|
 B8 z4 | (c2 B2) (c2 B2) (A2 B2) | G8 z4 | (e2 d2) (c2 d2) (B2 c2) | A4 z4 e4 | %128
w: ja,|Al\- * le\- * lu\- *|ja,|Al\- * le\- * lu\- *|ja, Al-|
 (c2 d2 c2 d2 e2 c2 | d6) c2 B4 | (A2 B2) (c2 d2) (e2 c2) | (d2 c2 B2 A2 G2 F2 | %132
w: le\- * * * * *|* lu- ja,|Al\- * le\- * lu\- *|ja, * * * * *|
 E2 F2 G2 E2) F2 G2 | A6 B2 ^G4 ||[M:4/4] A8 | z8 | e8 | (d8 | c8) | B8 | !fermata!A8 |] %141
w: * * * * Al\- *|* le- lu-|ja,||Al-|le\-||lu-|ja.|
V:2
 z8 | z8 | z8 | z8 | z2 E2 E3 ^F | GGGG G3 (^F | G2) D2 F2 EE | D4 z2 E2 | F3 G AAAA | %9
w: ||||be- fiehl dem|Her- ren dei- ne We- ge,|* und hof- fe auf|ihn, be-|fiehl dem Her- ren dei- ne|
 A3 (^G A2) E2 | G2 FF E4 | z4 z AGA | ^FF z2 z G=FG | EE z2 z FEF | D4 C4 | z4 AAAB | c2 cd B4 | %17
w: We- ge, * und|hof- fe auf ihn,|er wirds wohl|ma- chen, er wirds wohl|ma- chen, er wirds wohl|ma- chen,|ha- be dei- ne|Lust an dem Her-|
 AGAB c2 cd | (de) (fe) d4 | c4 z4 | z8 | z8 | z4 z2 G2 | A3 B cccc | B4 A2 E2 | G2 FF E4 | %26
w: ren, der wird dir ge- ben, was|dein * Herz * wün-|schet,|||be-|fiehl dem Her- ren dei- ne|We- ge und|hof- fe auf ihn,|
 z AGA ^FF z2 | z G=FG EE z2 | z FEF D4 | C4 z ede | cc z2 z AGA | FF z2 z dcd | (B2 A4 ^G2) | A8 | %34
w: er wirds wohl ma- chen,|er wirds wohl ma- chen,|er wirds wohl ma-|chen, er wirds wohl|ma- chen, er wirds wohl|ma- chen, er wirds wohl|ma\- * *|chen.|
 z8 | z2 A>B GG GG/A/ | FE F2 E4 | z A cc/B/ AcBA | B2 A2 z4 | z4 z2 ef | dd dd/e/ cB c2 | B8 | %42
w: |sei nicht nei- disch ü- ber die|Ü- bel- thä- ter,|er- zür- ne dich nicht ü- ber die|Bö- sen,|sei nicht|nei- disch ü- ber die Ü- bel- thä-|ter,|
 z2 G4 AB | c4 GGGA | F3 D (D2 ^C2) | D4 z2 G2- | G2 GG G3 ^F | G2 GA B2 A2 | (G3 ^F GFFE) | %49
w: denn wie das|Gras wer- den sie bald|ab- ge- hau\- *|en, und|* wie das grü- ne|Kraut wer- den sie ver-|wel\- * * * * *|
 ^F4 z4 | z8 | z4 z2 (G2- | G2 AB c4- | c2 de f4- | f3 f e2 c2 | d8 | c8 | z2 (E4 FG | A6 B2 | %59
w: ken.||Hof\-|||* fe auf den|Her-|ren,|hof\- * *||
 c3) c c2 A2 | B2 c4 B2) | c4 c4 | d6 d2 | e8 | z8 | d2 B2 G2 G2 | z2 z c dc B2 | (G2 A4 ^G2) | %68
w: * fe auf den|Her\- * *|ren und|thu- e|Guts,||bleib im Lan- de|und näh- re dich|red\- * *|
 A8 | z8 | EEEE F2 FG | E8 | D4 z FAB | c2 cc _B2 A2 | G4 G4 | z8 | z4 z Acd | e2 ee d2 c2 | B8 | %79
w: lich.||Ha- be dei- ne Lust an dem|Her-|ren, der wird dir|ge- ben, was dein Herz|wün- schet,||der wird dir|ge- ben, was dein Herz|wün-|
 A4 z ^CDE | FDGF E4 | D4 z2 A2 | A2 A^G ABcd | ecfe d4 | c2 G2 G2 G^F | GGAc BB z2 | z GAc c3 (B | %87
w: schet. ~Be- fiehl dem|Her- ren dei- ne We-|ge und|hof- fe auf ihn, be- fiehl dem|Her- ren dei- ne We-|ge und hof- fe auf|ihn, er wirds wohl ma- chen,|er wirds wohl ma- chen,|
 cE^FA ^GG z2 | z E^FA ^GG/G/ Ac | B4 A4 | ed) (cB) A2 A2 | z4 z2 z B | cB A2 z2 z d | %93
w: * er wirds wohl ma- chen,|er wirds wohl ma- chen, er wirds wohl|ma- chen.|Al\- * le\- * lu- ja,|Al-|le- lu- ja, Al-|
 ed c2 BA B2 | A4 z2 z c | BcdG BA G2 | z2 z c dcBA | G2 (A3 ^G/^F/ G2) | A2 ed cBAG | B2 B2 z4 | %100
w: le- lu- ja, Al- le- lu-|ja, Al-|le- lu- ja, Al- le- lu- ja,|Al- le- lu- ja, Al-|le- lu\- * * *|ja, Al- le- lu- ja, Al- le-|lu- ja,|
 z4 z2 gf | edcB B4 | A4 z4 | z4 d3 c | c2 c3 B (B2- | BA A3) ^G G2 | A2 c2 ^F4 | G4 z4 | %108
w: Al- le-|lu- ja, Al- le- lu-|ja,|Al- le-|lu- ja, Al- le\-|* * * lu- ja,|Al- le- lu-|ja,|
 A2 c2 ^F2 G2 | c2 e2 ^G4 ||[M:3/2] A8 z4 | z12 | z12 |[M:3/2] z12 | z12 | z12 | z4 z2 e2 d2 c2 | %117
w: Al- le- lu- ja,|Al- le- lu-|ja,||||||Al- le- lu-|
 (d2 c2 B2 A2 G2 F2 | E8 A2 G2 | ^F4 F4 B2 A2 | G4 G4 (d2 c2) | c2 B2) B8 | A8 z4 | %123
w: ja, * * * * *|* Al- le-|lu- ja, Al- le-|lu- ja, Al\- *|le\- * lu-|ja,|
 (d2 c2) (d2 c2) (B2 c2) | A8 z4 | (G2 F2) (G2 F2) (E2 D2) | E8 (f2 e2) | (d2 e2) (c2 d2) B4 | %128
w: Al\- * le\- * lu\- *|ja.|Al\- * le\- * lu\- *|ja, Al\- *|le\- * lu\- * ja,|
 z8 c4 | (B2 c2 B2 c2 d2 B2 | c6) B2 A4 | (G2 A2) (B2 c2) (d2 B2) | (e2 d2 c2 B2) (A2 B2) | %133
w: Al-|le\- * * * * *|* lu- ja,|Al\- * le\- * lu\- *|ja, * * * Al\- *|
 (c2 d2) B8 ||[M:4/4] A4 e4- | e4 (d4- | d4 c4- | c2 B2 B4- | B2 A2 A4- | A2 ^G^F) G4 | %140
w: le\- * lu-|ja, Al\-|* le\-||||* * * lu-|
 !fermata!A8 |] %141
w: ja.|
V:3
 A,2 G,2 F,2 E,2 | D,2 E,2 A,,2 B,,2 | C,2 B,,2 A,,2 G,,2 | F,,2 E,,2 x2- x2 | C,2 D,2 E,2 D,2 | %5
w: |||* * 4||
w: |||||
 C,2 B,,2 x2- x2 | G,,4 A,,2 C,2 | G,,2 G,2 F,2 E,2 | D,2 E,2 F,2 D,2 | x2- x2 A,,4 | %10
w: * 6 4|* 6 *|||4 *|
w: |||||
 B,,2 D,2 A,,4 | A,2 G,A, ^F,2 E,2 | D,2 ^C,D, B,,4 | =C,2 B,,C, A,,2 F,,2 | x2- x2 C,4 | %15
w: 6 * *||* * * 6||4 *|
w: |||||
 A,2 G,2 F,2 x-x | E,2 C,2 D,2 E,2 | A,,2 G,2 F,2 E,2 | D,2 E,2 F,2 G,2 | C,2 D,2 E,2 D,2 | %20
w: * * * 5|6 6 * *||* 6 * *||
w: |||||
 C,2 B,,2 x2- x2 | G,,4 A,,2 C,2 | G,,2 G,2 F,2 E,2 | D,2 C,B,, A,,2 C,2 | x2- x2 A,,4 | %25
w: * 6 4|* 6 *|||4 *|
w: |||||
 B,,2 D,2 A,,4 | A,4 D,4 | G,4 C,4 | F,,4 x2- x2 | C,4 C2 B,2 | A,2 G,2 F,2 E,2 | D,2 E,2 F,2 D,2 | %32
w: 6 * *|||* 4||||
w: |||||||
 x2- x4 x2 | A,,8 | D,6 D,2 | ^C,2 D,2 B,,4 | ^C,2 D,2 A,,4 | A,,6 A,2 | ^G,2 A,2 z2 A,2 | %39
w: |||* * 6||||
w: |||||||
 ^F,4 ^G,2 A,2- | A,2 ^G,2 A,2 A,,2 | E,8 | C,8 | C,8 | D,2 G,,2 A,,2- A,,2 | D,4 C,4 | %46
w: |4 * * *||||* * 4 *||
w: |2 * * *||||||
 B,,4 x2- x2 | G,,4 G,2 ^F,2 | x6- x2 | D,4 A,2 G,2 | F,2 E,2 D,4 | C,8 | C,6 D,E, | F,6 G,2 | %54
w: 6 7||7||||||
w: ||||||||
 A,4 A,3 A, | G,2 F,2 x2- x2 | C,8 | C,6 D,E, | F,6 G,2 | A,4- A,3 A, | G,2 F,2 x2- x2 | C,4 A,,4 | %62
w: 6 * *|* * 4||||6 * *|* * 4||
w: ||||||||
 F,,4 G,,4 | C,8 | A,,8 | G,,8 | A,,4 B,,4 | x2-xD, x2- x2 | A,,8 | A,4 ^F,2 ^G,2 | A,4 D,2 G,,2 | %71
w: |||||* * 4||||
w: |||||||||
 x4- x4 | D,4- D,D,C,B,, | A,,3 A,, G,,2 F,,2 | C,4- C,C,B,,A,, | G,,4 A,,2 B,,2 | D,4- D,D,C,B,, | %77
w: 4|* * * 6 *|||* * 6|* * * 6 *|
w: ||||||
 A,,3 A,, B,,2 C,2 | x4- x4 | A,,4 A,,4 | D,2 G,,2 A,,4 | D,8 | x2- x2 A,,4 | A,2 F,2 x2- x2 | %84
w: * * 6 6|4||||4 *|* * 4|
w: |||||||
 C,2 E,2 C,E, D,2 | G,,2 F,A, G,2 F,2 | G,2 F,C, x2- x2 | C,2 D,F, E,2 D,2 | E,2 D,F, E,2 D,A,, | %89
w: ||* * * 4|||
w: |||||
 x2- x2 A,,4 | A,,8 | G,,8 | A,,4 B,,4 | x2-xD, x2- x2 | A,,8 | G,,8 | A,,4 x2- x2 | %97
w: 4 *||||* * 4|||* 5|
w: ||||||||
 x2-xD, x2- x2 | A,,8 | G,,8 | A,,4 B,,4 | x2-xD, x2- x2 | A,,8 | G,,8 | A,,4 B,,4 | %105
w: * * 4||||* * 4||||
w: ||||||||
 x2-xD, x2- x2 | x4- x4 | G,,8 | A,,4 x2- x2 | C,3 D, E,4 ||[M:3/2] A,,12 | G,,12 | A,,12 | %113
w: * * 4|5||* 5|||||
w: ||||||||
[M:3/2] B,,12 | C,8 D,4- | D,4 E,8 | A,,12 | G,,12 | A,,12 | B,,12 | C,8 D,4- | D,4 E,8 | A,,12 | %123
w: 5||||||5||||
w: ||||||||||
 G,,12 | A,,12 | B,,12 | C,8 D,4- | D,4 E,8 | A,,12 | G,,12 | A,,12 | B,,12 | C,8 D,4- | D,4 E,8 || %134
w: ||6||||||6|||
w: |||||||||||
[M:4/4] A,,8 | x4- x4 | x4- x4 | x4- x4 | x4- x2 D,2 | x4- x4 | !fermata!A,,8 |] %141
w: |6|4|9|7 *|4||
w: |||||||

